X:482
T:
R:vals
S:Efter Joh. Johansson Allmunde i Burs.
O:Gotland, Burs
M:3/4
L:1/8
K:G
D2|G2 B2 B2|G2 B2 B2|G2 B2 B2|d3 c B2|A2 c2 c2|A2 c2 c2|e2 d2 c2|BG DB, G,2|
G2 B2 B2|G2 B2 B2|G2 B2 B2|d3 c B2|A2 c2 c2|e3 d B2|d2 c2 A2|G4::B2|d2 BGBd|
d2 BGBd|c2 AFAc|c2 AFAc|d2 BGBd|d2 BGBd|c2 AFAB|G4:|

